www/assets/images/cc-logos/discover.svg

<svg enable-background="new 0 0 100 48" viewBox="0 0 100 48" xmlns="http://www.w3.org/2000/svg"><path d="m26.4 9h47v30h-47z" fill="#fff"/><path d="m73.6 8.8h-47.3v30.3h47.4v-30.3zm-.3.4v29.6h-46.7v-29.6z" fill="#231f20"/><path d="m73.3 25.7s-12.8 9.1-36.4 13.1h36.4zm-22.2-8.1c-1.9 0-3.5 1.5-3.5 3.4s1.5 3.4 3.5 3.4c1.9 0 3.5-1.5 3.5-3.4s-1.5-3.4-3.5-3.4z" fill="#f58220"/><path d="m31.3 17.7h-1.9v6.5h1.9c1 0 1.7-.2 2.3-.8.8-.6 1.2-1.6 1.2-2.6 0-1.8-1.5-3.1-3.5-3.1zm1.5 4.9c-.4.4-.9.5-1.7.5h-.4v-4.3h.3c.8 0 1.3.2 1.7.5.4.4.7 1 .7 1.7.1.6-.2 1.2-.6 1.6zm2.6-4.9h1.3v6.5h-1.3zm4.4 2.5c-.8-.3-1-.4-1-.8s.4-.7 1-.7c.4 0 .7.2 1.1.5l.7-.9c-.5-.4-1.2-.8-1.9-.8-1.1 0-2 .8-2 1.9 0 .9.4 1.3 1.7 1.8.5.2.8.3.9.4.2.2.4.4.4.7 0 .5-.4.9-1 .9s-1.1-.3-1.4-.9l-1 .7c.6.9 1.3 1.3 2.2 1.3 1.3 0 2.2-.9 2.2-2.2 0-.9-.5-1.4-1.9-1.9zm2.3.7c0 1.9 1.5 3.4 3.4 3.4.5 0 1.1-.1 1.6-.4v-1.5c-.5.5-1 .8-1.6.8-1.3 0-2.2-.9-2.2-2.2s1-2.2 2.2-2.2c.6 0 1.1.2 1.6.7v-1.5c-.5-.3-1.1-.4-1.6-.4-1.9 0-3.4 1.5-3.4 3.3zm15.4 1.2-1.7-4.3h-1.4l2.8 6.7h.7l2.8-6.7h-1.3zm3.8 2.1h3.6v-1.1h-2.3v-1.7h2.3v-1.1h-2.3v-1.5h2.3v-1.1h-3.6zm8.6-4.6c0-1.2-.8-1.9-2.3-1.9h-1.9v6.5h1.3v-2.6h.2l1.8 2.6h1.6l-2.1-2.8c.9-.1 1.5-.8 1.4-1.8zm-2.5 1.1h-.4v-2h.4c.8 0 1.2.3 1.2 1 0 .6-.4 1-1.2 1z" fill="#001722"/><g fill="#231f20"><path d="m70.8 18.2c0-.2-.1-.2-.2-.2h-.2v.6h.2v-.2l.2.2h.2l-.2-.2c0-.1.1-.2 0-.2zm-.2 0v-.2c.1.1.1.1 0 .2.1 0 .1 0 0 0z"/><path d="m70.6 17.8c-.3 0-.5.2-.5.5s.2.5.5.5.5-.2.5-.5-.2-.5-.5-.5zm0 .9c-.2 0-.4-.2-.4-.4s.2-.4.4-.4.4.2.4.4c.1.2-.2.4-.4.4z"/></g></svg>

<?xml version="1.0" encoding="utf-8"?>
<!-- Generator: Adobe Illustrator 21.0.0, SVG Export Plug-In . SVG Version: 6.00 Build 0)  -->
<svg version="1.1" id="Layer_1" xmlns="http://www.w3.org/2000/svg" xmlns:xlink="http://www.w3.org/1999/xlink" x="0px" y="0px"
	 viewBox="0 0 100 48" style="enable-background:new 0 0 100 48;" xml:space="preserve">
<style type="text/css">
	.st0{fill:#FFFFFF;}
	.st1{fill:#231F20;}
	.st2{fill:#F58220;}
	.st3{fill:#001722;}
</style>
<path class="st0" d="M26.4,9h47v30h-47V9z"/>
<path class="st1" d="M73.6,8.8H26.3v30.3h47.4V8.8H73.6z M73.3,9.2v29.6H26.6V9.2C27,9.2,73,9.2,73.3,9.2z"/>
<path class="st2" d="M73.3,25.7c0,0-12.8,9.1-36.4,13.1h36.4V25.7z M51.1,17.6c-1.9,0-3.5,1.5-3.5,3.4c0,1.9,1.5,3.4,3.5,3.4
	c1.9,0,3.5-1.5,3.5-3.4C54.6,19.1,53.1,17.6,51.1,17.6z"/>
<path class="st3" d="M31.3,17.7h-1.9v6.5h1.9c1,0,1.7-0.2,2.3-0.8c0.8-0.6,1.2-1.6,1.2-2.6C34.8,19,33.3,17.7,31.3,17.7L31.3,17.7z
	 M32.8,22.6c-0.4,0.4-0.9,0.5-1.7,0.5h-0.4v-4.3H31c0.8,0,1.3,0.2,1.7,0.5c0.4,0.4,0.7,1,0.7,1.7C33.5,21.6,33.2,22.2,32.8,22.6
	L32.8,22.6z M35.4,17.7h1.3v6.5h-1.3V17.7z M39.8,20.2c-0.8-0.3-1-0.4-1-0.8c0-0.4,0.4-0.7,1-0.7c0.4,0,0.7,0.2,1.1,0.5l0.7-0.9
	c-0.5-0.4-1.2-0.8-1.9-0.8c-1.1,0-2,0.8-2,1.9c0,0.9,0.4,1.3,1.7,1.8c0.5,0.2,0.8,0.3,0.9,0.4c0.2,0.2,0.4,0.4,0.4,0.7
	c0,0.5-0.4,0.9-1,0.9c-0.6,0-1.1-0.3-1.4-0.9L37.3,23c0.6,0.9,1.3,1.3,2.2,1.3c1.3,0,2.2-0.9,2.2-2.2C41.7,21.2,41.2,20.7,39.8,20.2
	L39.8,20.2z M42.1,20.9c0,1.9,1.5,3.4,3.4,3.4c0.5,0,1.1-0.1,1.6-0.4v-1.5c-0.5,0.5-1,0.8-1.6,0.8c-1.3,0-2.2-0.9-2.2-2.2
	c0-1.3,1-2.2,2.2-2.2c0.6,0,1.1,0.2,1.6,0.7V18c-0.5-0.3-1.1-0.4-1.6-0.4C43.6,17.6,42.1,19.1,42.1,20.9z M57.5,22.1l-1.7-4.3h-1.4
	l2.8,6.7h0.7l2.8-6.7h-1.3L57.5,22.1z M61.3,24.2h3.6v-1.1h-2.3v-1.7h2.3v-1.1h-2.3v-1.5h2.3v-1.1h-3.6V24.2z M69.9,19.6
	c0-1.2-0.8-1.9-2.3-1.9h-1.9v6.5H67v-2.6h0.2l1.8,2.6h1.6l-2.1-2.8C69.4,21.3,70,20.6,69.9,19.6L69.9,19.6z M67.4,20.7H67v-2h0.4
	c0.8,0,1.2,0.3,1.2,1C68.6,20.3,68.2,20.7,67.4,20.7z"/>
<path class="st1" d="M70.8,18.2c0-0.2-0.1-0.2-0.2-0.2h-0.2v0.6h0.2v-0.2l0.2,0.2h0.2l-0.2-0.2C70.8,18.3,70.9,18.2,70.8,18.2
	L70.8,18.2z M70.6,18.2v-0.2C70.7,18.1,70.7,18.1,70.6,18.2C70.7,18.2,70.7,18.2,70.6,18.2L70.6,18.2z"/>
<path class="st1" d="M70.6,17.8c-0.3,0-0.5,0.2-0.5,0.5s0.2,0.5,0.5,0.5s0.5-0.2,0.5-0.5S70.9,17.8,70.6,17.8z M70.6,18.7
	c-0.2,0-0.4-0.2-0.4-0.4c0-0.2,0.2-0.4,0.4-0.4s0.4,0.2,0.4,0.4C71.1,18.5,70.8,18.7,70.6,18.7z"/>
</svg>
